assets/icons/solid/plane-lock.svg

<svg xmlns="http://www.w3.org/2000/svg" viewBox="0 0 640 512"><!--! Font Awesome Pro 6.2.0 by @fontawesome - https://fontawesome.com License - https://fontawesome.com/license (Commercial License) Copyright 2022 Fonticons, Inc. --><path d="M192 93.7C192 59.5 221 0 256 0c36 0 64 59.5 64 93.7v84.6l101.8 58.2C418 247.6 416 259.6 416 272v24.6c-17.9 10.4-30.3 29.1-31.8 50.9L320 329.1V400l57.6 43.2c4 3 6.4 7.8 6.4 12.8v24 18c0 7.8-6.3 14-14 14c-1.3 0-2.6-.2-3.9-.5L256 480 145.9 511.5c-1.3 .4-2.6 .5-3.9 .5c-7.8 0-14-6.3-14-14V456c0-5 2.4-9.8 6.4-12.8L192 400l0-70.9-171.6 49C10.2 381.1 0 373.4 0 362.8V297.3c0-5.7 3.1-11 8.1-13.9L192 178.3V93.7zM528 240c-17.7 0-32 14.3-32 32v48h64V272c0-17.7-14.3-32-32-32zm-80 32c0-44.2 35.8-80 80-80s80 35.8 80 80v48c17.7 0 32 14.3 32 32V480c0 17.7-14.3 32-32 32H448c-17.7 0-32-14.3-32-32V352c0-17.7 14.3-32 32-32V272z"/></svg>

<svg xmlns="http://www.w3.org/2000/svg" viewBox="0 0 640 512"><!--! Font Awesome Free 6.1.2 by @fontawesome - https://fontawesome.com License - https://fontawesome.com/license/free (Icons: CC BY 4.0, Fonts: SIL OFL 1.1, Code: MIT License) Copyright 2022 Fonticons, Inc. --><path d="M192 93.68C192 59.53 221 0 256 0C292 0 320 59.53 320 93.68V178.3L421.8 236.4C418 247.6 416 259.6 416 272V296.6C398.1 306.9 385.7 325.7 384.2 347.5L320 329.1V400L377.6 443.2C381.6 446.2 384 450.1 384 456V497.1C384 505.7 377.7 512 369.1 512C368.7 512 367.4 511.8 366.1 511.5L256 480L145.9 511.5C144.6 511.8 143.3 512 142 512C134.3 512 128 505.7 128 497.1V456C128 450.1 130.4 446.2 134.4 443.2L192 400V329.1L20.4 378.2C10.17 381.1 0 373.4 0 362.8V297.3C0 291.5 3.076 286.2 8.062 283.4L192 178.3L192 93.68zM528 192C572.2 192 608 227.8 608 272V320C625.7 320 640 334.3 640 352V480C640 497.7 625.7 512 608 512H448C430.3 512 416 497.7 416 480V352C416 334.3 430.3 320 448 320V272C448 227.8 483.8 192 528 192zM528 240C510.3 240 496 254.3 496 272V320H560V272C560 254.3 545.7 240 528 240z"/></svg>
